X:501
T: Trichte Kinder dieser Welt (5-97), S. 153
N: P0771
O: Lothringen
S: MERKELBACH-PINCK, Angelika: Verklingende Weisen, Bd 5, Kassel 1962]
R: ???, geistlich?]
M: 2/4
L: 1/8
K: A
 | =c2BA | AGAE | E2z2 |
=c2BA | A2AB | A2z2 |
=c2cc | =ccce | d=cBz |
d2cB | AGA=c | B2AB | =c2
BA | =c2BA | A=GA=c | Bd=cB | A2
=cd | e2d=c | d2=cB | ABA=G | A2z2

@@@ Tune index: 8051
